X:1
T:Title
%%score { ( 1 4 ) | ( 2 3 ) }
L:1/8
M:3/4
K:C
V:1 treble nm="Grand Piano"
V:4 treble 
V:2 bass 
V:3 bass 
V:1
 z2 z2 [EG]2 | [EG]2 G2 G2 | [EG]2 G2 G2 | [FA]4 G2 |[M:2/4] [CEG]4 |[M:1/4] GG |[M:3/4] A4 A2 | %7
 [EG]2 G2 [CG]2 | [CFA]4 [FB]2 |[M:2/4] [Ec]4 |[M:1/4] [EG]2 |[M:3/4] [EG]2 G2 G2 | [EG]2 G2 G2 | %13
 [FA]4 G2 |[M:2/4] [CEG]4 |[M:1/4] GG |[M:3/4] A4 A2 | [EG]2 G2 [CG]2 | [CFA]4 [FB]2 | %19
[M:2/4] [Ec]4 |[M:1/4] cc |[M:3/4] c2 d2 c2 | B2 c2 B2 | [CEA]4 E2 |[M:2/4] [A,CE]4 |[M:1/4] z2 | %26
[M:3/4] c2 d2 c2 | B2 c2 B2 | [CEA]4 E2 | [A,CE]4 GG | [EG]2 G2 G2 | [EG]2 G2 G2 | [FA]4 G2 | %33
[M:2/4] [CEG]4 |[M:1/4] GG |[M:3/4] A4 A2 | [EG]2 G2 [CG]2 | [CFA]4 [FB]2 |[M:6/4] .[Ec]6 z6 |] %39
V:2
 z2 z2 [C,C]2 | z2 E2 E2 | z2 E2 E2 | z2 z2 E2 |[M:2/4] C,4 |[M:1/4][K:treble] EE |[M:3/4] F4 F2 | %7
 z2 E2 E,2 | D,4 G,2 |[M:2/4] [C,G,]4 |[M:1/4] [C,C]2 |[M:3/4] z2 E2 E2 | z2 E2 E2 | z2 z2 E2 | %14
[M:2/4] C,4 |[M:1/4][K:treble] EE |[M:3/4] F4 F2 | z2 E2 E,2 | D,4 G,2 |[M:2/4] [C,G,]4 | %20
[M:1/4] z2 |[M:3/4] [A,,A,]6 | z2 z2 [D^G]2 | z2 z2 C2 |[M:2/4] A,,4 |[M:1/4][K:treble] AB | %26
[M:3/4][K:bass] [A,,A,]6 | z2 z2 [D^G]2 | z2 z2 C2 | A,,4 EE | z2 E2 E2 | z2 E2 E2 | z2 z2 E2 | %33
[M:2/4] C,4 |[M:1/4][K:treble] EE |[M:3/4] F4 F2 | z2 E2 E,2 | D,4 G,2 |[M:6/4] .[C,G,]6 z6 |] %39
V:3
 x6 | [C,C]6 | [C,C]6 | [C,C]6 |[M:2/4] x4 |[M:1/4][K:treble] x2 |[M:3/4] [F,C]6 | [C,C]4 z2 | x6 | %9
[M:2/4] x4 |[M:1/4] x2 |[M:3/4] [C,C]6 | [C,C]6 | [C,C]6 |[M:2/4] x4 |[M:1/4][K:treble] x2 | %16
[M:3/4] [F,C]6 | [C,C]4 z2 | x6 |[M:2/4] x4 |[M:1/4] x2 |[M:3/4] x6 | [E,,E,]6 | [A,,A,]6 | %24
[M:2/4] x4 |[M:1/4][K:treble] x2 |[M:3/4][K:bass] x6 | [E,,E,]6 | [A,,A,]6 | x6 | [C,C]6 | [C,C]6 | %32
 [C,C]6 |[M:2/4] x4 |[M:1/4][K:treble] x2 |[M:3/4] [F,C]6 | [C,C]4 z2 | x6 |[M:6/4] x12 |] %39
V:4
 x6 | x6 | x6 | x6 |[M:2/4] x4 |[M:1/4] x2 |[M:3/4] x6 | x6 | x6 |[M:2/4] x4 |[M:1/4] x2 | %11
[M:3/4] x6 | x6 | x6 |[M:2/4] x4 |[M:1/4] x2 |[M:3/4] x6 | x6 | x6 |[M:2/4] x4 |[M:1/4] x2 | %21
[M:3/4] [EA]6 | [E^G]4 z2 | x6 |[M:2/4] x4 |[M:1/4] x2 |[M:3/4] [EA]6 | [E^G]4 z2 | x6 | x6 | x6 | %31
 x6 | x6 |[M:2/4] x4 |[M:1/4] x2 |[M:3/4] x6 | x6 | x6 |[M:6/4] x12 |] %39

